img/slider__arrow.svg

<svg width="23" height="16" viewBox="0 0 23 16" fill="none" xmlns="http://www.w3.org/2000/svg">
<path d="M21.333 8.79541C21.8853 8.79541 22.333 8.34769 22.333 7.79541C22.333 7.24313 21.8853 6.79541 21.333 6.79541L21.333 8.79541ZM0.6259 7.0883C0.235376 7.47883 0.235376 8.11199 0.6259 8.50252L6.98986 14.8665C7.38039 15.257 8.01355 15.257 8.40408 14.8665C8.7946 14.476 8.7946 13.8428 8.40408 13.4523L2.74722 7.79541L8.40408 2.13856C8.7946 1.74803 8.7946 1.11487 8.40408 0.724342C8.01355 0.333817 7.38039 0.333817 6.98986 0.724342L0.6259 7.0883ZM21.333 6.79541L1.33301 6.79541L1.33301 8.79541L21.333 8.79541L21.333 6.79541Z" fill="white"/>
</svg>

<svg xmlns="http://www.w3.org/2000/svg" width="23" height="16" fill="none"><path fill="#fff" d="M21.333 8.795a1 1 0 1 0 0-2v2ZM.626 7.088a1 1 0 0 0 0 1.415l6.364 6.364a1 1 0 0 0 1.414-1.415L2.747 7.795 8.404 2.14A1 1 0 0 0 6.99.724L.626 7.088Zm20.707-.293h-20v2h20v-2Z"/></svg>
